X: 08059
T: JOHNNY'S JIG
C: Bob McQuillen 9 Jan 91
B: Bob's Note Book 8 #59
%R: jig
Z: 2021 John Chambers <jc:trillian.mit.edu>
M: 6/8
L: 1/8
K: Em	% and G
B,D \
| EFG FED | B,EE EGA | Bde dBA | GBB BGA |\
| Bed BGB | AGE DB,D | EGE DB,A, | B,EE E :|
|: DE \
| GAB AGA | BGG GBd | egb age | dgg gba |\
| geg aga | bge dBd | geg dBA | BGG G :|
%%begintext align
%% Johnny Ducmanh [sp?]
%% lives down in New York City, but he loves to dance
%% and sometimes gets up this way to a Brattleboro
%% Dawn Dance. It was at one of these that he first got my
%% attention while doing "Rory O'More" by kissing every girl
%% in the line as he went down through. Outstanding!!
%%endtext

%%sep 1 1 500

%%sep 1 1 500

